offer/images/customers.svg

<svg height="51" viewBox="0 0 51 51" width="51" xmlns="http://www.w3.org/2000/svg"><g fill="none" fill-rule="evenodd"><path d="m28.445947 18.7h-.718539c1.0723129-.9297968 1.4542658-2.427852.9580518-3.7575696-.4962141-1.3297175-1.7661893-2.2113186-3.1854768-2.2113186s-2.6892627.8816011-3.1854768 2.2113186c-.496214 1.3297176-.1142611 2.8277728.9580518 3.7575696h-.718539c-2.597957 0-3.854019 2.106062-3.854019 4.704053v7.195947h2.55v12.75h8.5v-12.75h2.55v-7.195947c0-2.597991-1.256062-4.704053-3.854053-4.704053z" fill="#0053bf"/><path d="m24.65 31.45h1.7v11.9h-1.7z" fill="#05377f"/><circle cx="45.05" cy="5.95" fill="#c0c0c0" r="5.95"/><circle cx="5.95" cy="5.95" fill="#ffd700" r="5.95"/><path d="m.85 5.95c.00131883-3.11954302 2.41328435-5.70766737 5.525-5.9285205-.1409555-.010013-.281503-.0214795-.425-.0214795-3.28609423.00000005-5.94999991 2.66390577-5.94999991 5.95s2.66390568 5.95 5.94999991 5.95c.143497 0 .2840445-.0114665.425-.0214795-3.11170796-.2208692-5.52366456-2.80898402-5.525-5.9285205z" fill="#c9a200"/><path d="m13.6 24.65h3.4v1.7h-3.4z" fill="#6c747f"/><path d="m34 24.65h3.4v1.7h-3.4z" fill="#6c747f"/><path d="m45.05 0c-.143497 0-.2840445.0114665-.425.0214795 3.1123083.21959792 5.5249556 2.80847464 5.5249556 5.9285205s-2.4126473 5.7089226-5.5249556 5.9285205c.1409555.010013.281503.0214795.425.0214795 3.2860942 0 5.9499999-2.66390577 5.9499999-5.95s-2.6639057-5.94999995-5.9499999-5.95z" fill="#929499"/><circle cx="45.05" cy="45.05" fill="#c0c0c0" r="5.95"/><circle cx="5.95" cy="25.5" fill="#c0c0c0" r="5.95"/><circle cx="45.05" cy="25.5" fill="#ffd700" r="5.95"/><circle cx="5.95" cy="45.05" fill="#ffd700" r="5.95"/><path d="m28.876948 22.1h.85v8.5h-.85z" fill="#05377f"/><path d="m21.273052 22.1h.85v8.5h-.85z" fill="#05377f"/><g fill="#7c7c7c" transform="translate(4.25 1.7)"><path d="m39.95 8.5c-1.4076892-.00153655-2.5484634-1.14231084-2.55-2.55h1.7c0 .46944204.380558.85.85.85s.85-.38055796.85-.85c0-.4743935-.144432-.5910135-1.1040055-.890256-.858296-.267699-2.2959945-.71553-2.2959945-2.509744 0-1.40832611 1.1416739-2.55 2.55-2.55s2.55 1.14167389 2.55 2.55h-1.7c0-.46944204-.380558-.85-.85-.85s-.85.38055796-.85.85c0 .472311.144432.588523 1.102348.886941.859129.2681155 2.297652.7163545 2.297652 2.513059-.0015366 1.40768916-1.1423108 2.54846345-2.55 2.55z"/><path d="m39.95 28.05c-1.4076892-.0015366-2.5484634-1.1423108-2.55-2.55h1.7c0 .469442.380558.85.85.85s.85-.380558.85-.85c0-.4743935-.144432-.5910135-1.1040055-.890256-.858296-.267699-2.2959945-.71553-2.2959945-2.509744 0-1.4083261 1.1416739-2.55 2.55-2.55s2.55 1.1416739 2.55 2.55h-1.7c0-.469442-.380558-.85-.85-.85s-.85.380558-.85.85c0 .472311.144432.588523 1.102348.886941.859129.2681155 2.297652.7163545 2.297652 2.513059-.0015366 1.4076892-1.1423108 2.5484634-2.55 2.55z"/><path d="m2.55 28.05c-1.40768916-.0015366-2.54846345-1.1423108-2.55-2.55h1.7c0 .469442.38055796.85.85.85s.85-.380558.85-.85c0-.4743935-.144432-.5910135-1.1040055-.890256-.858296-.267699-2.2959945-.71553-2.2959945-2.509744 0-1.4083261 1.14167389-2.55 2.55-2.55s2.55 1.1416739 2.55 2.55h-1.7c0-.469442-.38055796-.85-.85-.85s-.85.380558-.85.85c0 .472311.144432.588523 1.102348.886941.859129.2681155 2.297652.7163545 2.297652 2.513059-.00153655 1.4076892-1.14231084 2.5484634-2.55 2.55z"/><path d="m39.95 47.6c-1.4076892-.0015366-2.5484634-1.1423108-2.55-2.55h1.7c0 .469442.380558.85.85.85s.85-.380558.85-.85c0-.4743935-.144432-.5910135-1.1040055-.890256-.858296-.267699-2.2959945-.71553-2.2959945-2.509744 0-1.4083261 1.1416739-2.55 2.55-2.55s2.55 1.1416739 2.55 2.55h-1.7c0-.469442-.380558-.85-.85-.85s-.85.380558-.85.85c0 .472311.144432.588523 1.102348.886941.859129.2681155 2.297652.7163545 2.297652 2.513059-.0015366 1.4076892-1.1423108 2.5484634-2.55 2.55z"/><path d="m2.55 47.6c-1.40768916-.0015366-2.54846345-1.1423108-2.55-2.55h1.7c0 .469442.38055796.85.85.85s.85-.380558.85-.85c0-.4743935-.144432-.5910135-1.1040055-.890256-.858296-.267699-2.2959945-.71553-2.2959945-2.509744 0-1.4083261 1.14167389-2.55 2.55-2.55s2.55 1.1416739 2.55 2.55h-1.7c0-.469442-.38055796-.85-.85-.85s-.85.380558-.85.85c0 .472311.144432.588523 1.102348.886941.859129.2681155 2.297652.7163545 2.297652 2.513059-.00153655 1.4076892-1.14231084 2.5484634-2.55 2.55z"/><path d="m2.55 8.5c-1.40768916-.00153655-2.54846345-1.14231084-2.55-2.55h1.7c0 .46944204.38055796.85.85.85s.85-.38055796.85-.85c0-.4743935-.144432-.5910135-1.1040055-.890256-.858296-.267699-2.2959945-.71553-2.2959945-2.509744 0-1.40832611 1.14167389-2.55 2.55-2.55s2.55 1.14167389 2.55 2.55h-1.7c0-.46944204-.38055796-.85-.85-.85s-.85.38055796-.85.85c0 .472311.144432.588523 1.102348.886941.859129.2681155 2.297652.7163545 2.297652 2.513059-.00153655 1.40768916-1.14231084 2.54846345-2.55 2.55z"/></g><g fill="#6c747f"><path d="m33.5019 19.0519-1.2019-1.2019 7.04905-7.1519 1.2019 1.2019z"/><path d="m17.4981 19.0519 1.2019-1.2019-7.04905-7.1519-1.2019 1.2019z"/><path d="m35.2746208 32.8824979h1.700662v9.0356226h-1.700662z" transform="matrix(.75258041 -.65850036 .65850036 .75258041 -15.690096 33.041863)"/><path d="m9.93219124 36.125253h9.03562756v1.69949h-9.03562756z" transform="matrix(.75266743 -.6584009 .6584009 .75266743 -20.770415 18.659018)"/></g><path d="m.85 45.05c.00131883-3.119543 2.41328435-5.7076674 5.525-5.9285205-.1409555-.010013-.281503-.0214795-.425-.0214795-3.28609419.0000001-5.94999982 2.6639058-5.94999982 5.95s2.66390563 5.9499999 5.94999982 5.95c.143497 0 .2840445-.0114665.425-.0214795-3.11170796-.2208692-5.52366456-2.808984-5.525-5.9285205z" fill="#c9a200"/><path d="m50.15 25.5c-.0013188 3.119543-2.4132843 5.7076674-5.525 5.9285205.1409555.010013.281503.0214795.425.0214795 3.2860943 0 5.95-2.6639057 5.95-5.95s-2.6639057-5.95-5.95-5.95c-.143497 0-.2840445.0114665-.425.0214795 3.111708.2208692 5.5236646 2.808984 5.525 5.9285205z" fill="#c9a200"/><path d="m45.05 39.1c-.143497 0-.2840445.0114665-.425.0214795 3.1123083.2195979 5.5249556 2.8084746 5.5249556 5.9285205s-2.4126473 5.7089226-5.5249556 5.9285205c.1409555.010013.281503.0214795.425.0214795 3.2860943 0 5.95-2.6639057 5.95-5.95s-2.6639057-5.95-5.95-5.95z" fill="#929499"/><path d="m5.95 31.45c.143497 0 .2840445-.0114665.425-.0214795-3.1123083-.2195979-5.52495558-2.8084746-5.52495558-5.9285205s2.41264728-5.7089226 5.52495558-5.9285205c-.1409555-.010013-.281503-.0214795-.425-.0214795-3.28609421.0000001-5.94999987 2.6639058-5.94999987 5.95s2.66390566 5.9499999 5.94999987 5.95z" fill="#929499"/></g></svg>

<?xml version="1.0" encoding="UTF-8"?>
<svg width="51px" height="51px" viewBox="0 0 51 51" version="1.1" xmlns="http://www.w3.org/2000/svg" xmlns:xlink="http://www.w3.org/1999/xlink">
    <!-- Generator: Sketch 52.2 (67145) - http://www.bohemiancoding.com/sketch -->
    <title>customers</title>
    <desc>Created with Sketch.</desc>
    <g id="Page-1" stroke="none" stroke-width="1" fill="none" fill-rule="evenodd">
        <g id="offer" transform="translate(-150.000000, -8116.000000)">
            <g id="customers" transform="translate(150.000000, 8116.000000)">
                <path d="M28.445947,18.7 L27.727408,18.7 C28.7997209,17.7702032 29.1816738,16.272148 28.6854598,14.9424304 C28.1892457,13.6127129 26.9192705,12.7311118 25.499983,12.7311118 C24.0806955,12.7311118 22.8107203,13.6127129 22.3145062,14.9424304 C21.8182922,16.272148 22.2002451,17.7702032 23.272558,18.7 L22.554019,18.7 C19.956062,18.7 18.7,20.806062 18.7,23.404053 L18.7,30.6 L21.25,30.6 L21.25,43.35 L29.75,43.35 L29.75,30.6 L32.3,30.6 L32.3,23.404053 C32.3,20.806062 31.043938,18.7 28.445947,18.7 Z" id="Path" fill="#0053BF"></path>
                <polygon id="Path" fill="#05377F" points="24.65 31.45 26.35 31.45 26.35 43.35 24.65 43.35"></polygon>
                <circle id="Oval" fill="#C0C0C0" cx="45.05" cy="5.95" r="5.95"></circle>
                <circle id="Oval" fill="#FFD700" cx="5.95" cy="5.95" r="5.95"></circle>
                <path d="M0.85,5.95 C0.851318833,2.83045698 3.26328435,0.242332633 6.375,0.0214795 C6.2340445,0.0114665 6.093497,0 5.95,0 C2.66390577,4.89666186e-08 8.86619087e-08,2.66390577 8.86619083e-08,5.95 C8.8661908e-08,9.23609423 2.66390577,11.9 5.95,11.9 C6.093497,11.9 6.2340445,11.8885335 6.375,11.8785205 C3.26329204,11.6576513 0.85133544,9.06953648 0.85,5.95 Z" id="Path" fill="#C9A200"></path>
                <polygon id="Path" fill="#6C747F" points="13.6 24.65 17 24.65 17 26.35 13.6 26.35"></polygon>
                <polygon id="Path" fill="#6C747F" points="34 24.65 37.4 24.65 37.4 26.35 34 26.35"></polygon>
                <path d="M45.05,0 C44.906503,0 44.7659555,0.0114665 44.625,0.0214795 C47.7373083,0.241077416 50.1499556,2.82995414 50.1499556,5.95 C50.1499556,9.07004586 47.7373083,11.6589226 44.625,11.8785205 C44.7659555,11.8885335 44.906503,11.9 45.05,11.9 C48.3360942,11.9 50.9999999,9.23609423 50.9999999,5.95 C50.9999999,2.66390577 48.3360942,4.89666227e-08 45.05,0 Z" id="Path" fill="#929499"></path>
                <circle id="Oval" fill="#C0C0C0" cx="45.05" cy="45.05" r="5.95"></circle>
                <circle id="Oval" fill="#C0C0C0" cx="5.95" cy="25.5" r="5.95"></circle>
                <circle id="Oval" fill="#FFD700" cx="45.05" cy="25.5" r="5.95"></circle>
                <circle id="Oval" fill="#FFD700" cx="5.95" cy="45.05" r="5.95"></circle>
                <polygon id="Path" fill="#05377F" points="28.876948 22.1 29.726948 22.1 29.726948 30.6 28.876948 30.6"></polygon>
                <polygon id="Path" fill="#05377F" points="21.273052 22.1 22.123052 22.1 22.123052 30.6 21.273052 30.6"></polygon>
                <g id="Group" transform="translate(4.250000, 1.700000)" fill="#7C7C7C">
                    <path d="M39.95,8.5 C38.5423108,8.49846345 37.4015366,7.35768916 37.4,5.95 L39.1,5.95 C39.1,6.41944204 39.480558,6.8 39.95,6.8 C40.419442,6.8 40.8,6.41944204 40.8,5.95 C40.8,5.4756065 40.655568,5.3589865 39.6959945,5.059744 C38.8376985,4.792045 37.4,4.344214 37.4,2.55 C37.4,1.14167389 38.5416739,-8.8817842e-16 39.95,-8.8817842e-16 C41.3583261,-8.8817842e-16 42.5,1.14167389 42.5,2.55 L40.8,2.55 C40.8,2.08055796 40.419442,1.7 39.95,1.7 C39.480558,1.7 39.1,2.08055796 39.1,2.55 C39.1,3.022311 39.244432,3.138523 40.202348,3.436941 C41.061477,3.7050565 42.5,4.1532955 42.5,5.95 C42.4984634,7.35768916 41.3576892,8.49846345 39.95,8.5 Z" id="Path"></path>
                    <path d="M39.95,28.05 C38.5423108,28.0484634 37.4015366,26.9076892 37.4,25.5 L39.1,25.5 C39.1,25.969442 39.480558,26.35 39.95,26.35 C40.419442,26.35 40.8,25.969442 40.8,25.5 C40.8,25.0256065 40.655568,24.9089865 39.6959945,24.609744 C38.8376985,24.342045 37.4,23.894214 37.4,22.1 C37.4,20.6916739 38.5416739,19.55 39.95,19.55 C41.3583261,19.55 42.5,20.6916739 42.5,22.1 L40.8,22.1 C40.8,21.630558 40.419442,21.25 39.95,21.25 C39.480558,21.25 39.1,21.630558 39.1,22.1 C39.1,22.572311 39.244432,22.688523 40.202348,22.986941 C41.061477,23.2550565 42.5,23.7032955 42.5,25.5 C42.4984634,26.9076892 41.3576892,28.0484634 39.95,28.05 Z" id="Path"></path>
                    <path d="M2.55,28.05 C1.14231084,28.0484634 0.00153655491,26.9076892 0,25.5 L1.7,25.5 C1.7,25.969442 2.08055796,26.35 2.55,26.35 C3.01944204,26.35 3.4,25.969442 3.4,25.5 C3.4,25.0256065 3.255568,24.9089865 2.2959945,24.609744 C1.4376985,24.342045 0,23.894214 0,22.1 C-7.54951657e-16,20.6916739 1.14167389,19.55 2.55,19.55 C3.95832611,19.55 5.1,20.6916739 5.1,22.1 L3.4,22.1 C3.4,21.630558 3.01944204,21.25 2.55,21.25 C2.08055796,21.25 1.7,21.630558 1.7,22.1 C1.7,22.572311 1.844432,22.688523 2.802348,22.986941 C3.661477,23.2550565 5.1,23.7032955 5.1,25.5 C5.09846345,26.9076892 3.95768916,28.0484634 2.55,28.05 Z" id="Path"></path>
                    <path d="M39.95,47.6 C38.5423108,47.5984634 37.4015366,46.4576892 37.4,45.05 L39.1,45.05 C39.1,45.519442 39.480558,45.9 39.95,45.9 C40.419442,45.9 40.8,45.519442 40.8,45.05 C40.8,44.5756065 40.655568,44.4589865 39.6959945,44.159744 C38.8376985,43.892045 37.4,43.444214 37.4,41.65 C37.4,40.2416739 38.5416739,39.1 39.95,39.1 C41.3583261,39.1 42.5,40.2416739 42.5,41.65 L40.8,41.65 C40.8,41.180558 40.419442,40.8 39.95,40.8 C39.480558,40.8 39.1,41.180558 39.1,41.65 C39.1,42.122311 39.244432,42.238523 40.202348,42.536941 C41.061477,42.8050565 42.5,43.2532955 42.5,45.05 C42.4984634,46.4576892 41.3576892,47.5984634 39.95,47.6 Z" id="Path"></path>
                    <path d="M2.55,47.6 C1.14231084,47.5984634 0.00153655491,46.4576892 0,45.05 L1.7,45.05 C1.7,45.519442 2.08055796,45.9 2.55,45.9 C3.01944204,45.9 3.4,45.519442 3.4,45.05 C3.4,44.5756065 3.255568,44.4589865 2.2959945,44.159744 C1.4376985,43.892045 0,43.444214 0,41.65 C-7.54951657e-16,40.2416739 1.14167389,39.1 2.55,39.1 C3.95832611,39.1 5.1,40.2416739 5.1,41.65 L3.4,41.65 C3.4,41.180558 3.01944204,40.8 2.55,40.8 C2.08055796,40.8 1.7,41.180558 1.7,41.65 C1.7,42.122311 1.844432,42.238523 2.802348,42.536941 C3.661477,42.8050565 5.1,43.2532955 5.1,45.05 C5.09846345,46.4576892 3.95768916,47.5984634 2.55,47.6 Z" id="Path"></path>
                    <path d="M2.55,8.5 C1.14231084,8.49846345 0.00153655491,7.35768916 1.77635684e-15,5.95 L1.7,5.95 C1.7,6.41944204 2.08055796,6.8 2.55,6.8 C3.01944204,6.8 3.4,6.41944204 3.4,5.95 C3.4,5.4756065 3.255568,5.3589865 2.2959945,5.059744 C1.4376985,4.792045 1.77635684e-15,4.344214 1.77635684e-15,2.55 C1.77635684e-15,1.14167389 1.14167389,-8.8817842e-16 2.55,-8.8817842e-16 C3.95832611,-8.8817842e-16 5.1,1.14167389 5.1,2.55 L3.4,2.55 C3.4,2.08055796 3.01944204,1.7 2.55,1.7 C2.08055796,1.7 1.7,2.08055796 1.7,2.55 C1.7,3.022311 1.844432,3.138523 2.802348,3.436941 C3.661477,3.7050565 5.1,4.1532955 5.1,5.95 C5.09846345,7.35768916 3.95768916,8.49846345 2.55,8.5 Z" id="Path"></path>
                </g>
                <polygon id="Path" fill="#6C747F" points="33.5019 19.0519 32.3 17.85 39.34905 10.6981 40.55095 11.9"></polygon>
                <polygon id="Path" fill="#6C747F" points="17.4981 19.0519 18.7 17.85 11.65095 10.6981 10.44905 11.9"></polygon>
                <polygon id="Path" fill="#6C747F" transform="translate(36.124952, 37.400309) rotate(-41.185602) translate(-36.124952, -37.400309) " points="35.2746208 32.8824979 36.9752828 32.8824979 36.9752828 41.9181205 35.2746208 41.9181205"></polygon>
                <polygon id="Path" fill="#6C747F" transform="translate(14.450005, 36.974998) rotate(-41.178030) translate(-14.450005, -36.974998) " points="9.93219124 36.125253 18.9678188 36.125253 18.9678188 37.824743 9.93219124 37.824743"></polygon>
                <path d="M0.85,45.05 C0.851318833,41.930457 3.26328435,39.3423326 6.375,39.1214795 C6.2340445,39.1114665 6.093497,39.1 5.95,39.1 C2.66390581,39.1000001 1.77323818e-07,41.7639058 1.77323817e-07,45.05 C1.77323817e-07,48.3360942 2.66390581,50.9999999 5.95,51 C6.093497,51 6.2340445,50.9885335 6.375,50.9785205 C3.26329204,50.7576513 0.85133544,48.1695365 0.85,45.05 Z" id="Path" fill="#C9A200"></path>
                <path d="M50.15,25.5 C50.1486812,28.619543 47.7367157,31.2076674 44.625,31.4285205 C44.7659555,31.4385335 44.906503,31.45 45.05,31.45 C48.3360943,31.45 51,28.7860943 51,25.5 C51,22.2139057 48.3360943,19.55 45.05,19.55 C44.906503,19.55 44.7659555,19.5614665 44.625,19.5714795 C47.736708,19.7923487 50.1486646,22.3804635 50.15,25.5 Z" id="Path" fill="#C9A200"></path>
                <path d="M45.05,39.1 C44.906503,39.1 44.7659555,39.1114665 44.625,39.1214795 C47.7373083,39.3410774 50.1499556,41.9299541 50.1499556,45.05 C50.1499556,48.1700459 47.7373083,50.7589226 44.625,50.9785205 C44.7659555,50.9885335 44.906503,51 45.05,51 C48.3360943,51 51,48.3360943 51,45.05 C51,41.7639057 48.3360943,39.1 45.05,39.1 Z" id="Path" fill="#929499"></path>
                <path d="M5.95,31.45 C6.093497,31.45 6.2340445,31.4385335 6.375,31.4285205 C3.2626917,31.2089226 0.850044415,28.6200459 0.850044415,25.5 C0.850044415,22.3799541 3.2626917,19.7910774 6.375,19.5714795 C6.2340445,19.5614665 6.093497,19.55 5.95,19.55 C2.66390579,19.5500001 1.25386876e-07,22.2139058 1.25386875e-07,25.5 C1.25386875e-07,28.7860942 2.66390579,31.4499999 5.95,31.45 Z" id="Path" fill="#929499"></path>
            </g>
        </g>
    </g>
</svg>
